file/photoshop.svg

<svg clip-rule="evenodd" fill-rule="evenodd" stroke-linejoin="round" stroke-miterlimit="1.41421" viewBox="0 0 560 400" xmlns="http://www.w3.org/2000/svg"><g transform="matrix(1.125 0 0 1.125 145 68.3755)"><path d="m10 10h220v214h-220z" fill="#001d26"/><g fill="#00c8ff"><path d="m0 0v234h240.001v-234zm10 10h220.001v214h-220.001z"/><path d="m58 54.789c0-.66 1.415-1.154 2.24-1.154 6.435-.33 15.882-.495 25.782-.495 27.72 0 38.515 15.181 38.515 34.649 0 25.41-18.428 36.301-41.033 36.301-3.795 0-5.115-.166-7.755-.166v38.42c0 .826-.33 1.156-1.155 1.156h-15.439c-.825 0-1.155-.33-1.155-1.156zm17.75 53.131c2.31.164 4.125.164 8.085.164 11.715 0 22.718-4.125 22.718-19.965 0-12.705-7.868-19.14-21.233-19.14-3.96 0-7.755.165-9.57.33zm86.072-11.881c-7.92 0-10.56 3.961-10.56 7.26 0 3.631 1.814 6.105 12.375 11.551 15.675 7.59 20.625 14.85 20.625 25.575 0 16.006-12.21 24.586-28.71 24.586-8.745 0-16.188-1.816-20.478-4.291-.66-.33-.825-.824-.825-1.65v-14.684c0-.99.495-1.32 1.155-.826 6.27 4.125 13.547 5.941 20.147 5.941 7.92 0 11.22-3.301 11.22-7.756 0-3.631-2.31-6.766-12.375-12.045-14.19-6.766-20.13-13.696-20.13-25.245 0-12.871 10.065-23.596 27.555-23.596 8.58 0 14.638 1.32 17.938 2.805.825.496.99 1.32.99 1.98v13.696c0 .824-.495 1.32-1.485.99-4.454-2.64-11.006-4.291-17.442-4.291z"/></g></g></svg>

<?xml version="1.0" encoding="UTF-8" standalone="no"?>
<!DOCTYPE svg PUBLIC "-//W3C//DTD SVG 1.1//EN" "http://www.w3.org/Graphics/SVG/1.1/DTD/svg11.dtd">
<svg width="100%" height="100%" viewBox="0 0 560 400" version="1.1" xmlns="http://www.w3.org/2000/svg" xmlns:xlink="http://www.w3.org/1999/xlink" xml:space="preserve" xmlns:serif="http://www.serif.com/" style="fill-rule:evenodd;clip-rule:evenodd;stroke-linejoin:round;stroke-miterlimit:1.41421;">
    <g transform="matrix(1.125,0,0,1.125,145,68.3755)">
        <rect x="10" y="10" width="220" height="214" style="fill:rgb(0,29,38);"/>
        <path d="M0,0L0,234L240.001,234L240.001,0L0,0ZM10,10L230.001,10L230.001,224L10,224L10,10Z" style="fill:rgb(0,200,255);"/>
        <path d="M58,54.789C58,54.129 59.415,53.635 60.24,53.635C66.675,53.305 76.122,53.14 86.022,53.14C113.742,53.14 124.537,68.321 124.537,87.789C124.537,113.199 106.109,124.09 83.504,124.09C79.709,124.09 78.389,123.924 75.749,123.924L75.749,162.344C75.749,163.17 75.419,163.5 74.594,163.5L59.155,163.5C58.33,163.5 58,163.17 58,162.344L58,54.789ZM75.75,107.92C78.06,108.084 79.875,108.084 83.835,108.084C95.55,108.084 106.553,103.959 106.553,88.119C106.553,75.414 98.685,68.979 85.32,68.979C81.36,68.979 77.565,69.144 75.75,69.309L75.75,107.92ZM161.822,96.039C153.902,96.039 151.262,100 151.262,103.299C151.262,106.93 153.076,109.404 163.637,114.85C179.312,122.44 184.262,129.7 184.262,140.425C184.262,156.431 172.052,165.011 155.552,165.011C146.807,165.011 139.364,163.195 135.074,160.72C134.414,160.39 134.249,159.896 134.249,159.07L134.249,144.386C134.249,143.396 134.744,143.066 135.404,143.56C141.674,147.685 148.951,149.501 155.551,149.501C163.471,149.501 166.771,146.2 166.771,141.745C166.771,138.114 164.461,134.979 154.396,129.7C140.206,122.934 134.266,116.004 134.266,104.455C134.266,91.584 144.331,80.859 161.821,80.859C170.401,80.859 176.459,82.179 179.759,83.664C180.584,84.16 180.749,84.984 180.749,85.644L180.749,99.34C180.749,100.164 180.254,100.66 179.264,100.33C174.81,97.69 168.258,96.039 161.822,96.039Z" style="fill:rgb(0,200,255);"/>
    </g>
</svg>
